X: 3249
T: MARY MURPHY
%R: jig
B: James Kerr "Merry Melodies" v.3 p.28 #249
Z: 2016 John Chambers <jc:trillian.mit.edu>
M: 6/8
L: 1/8
K: D
uA |\
vd2vd cBA | B2B AGF | GAG FED | EFG ABc |\
d2d cBA | B2B AGF | EFG ABc | d3- d2 :|
|: d |\
f2e def | e2d cde | d2c Bcd | c2B A2d |\
f2e def | e2d cde | dcB e2^G | A3- A2 :|

%%sep 1 1 500
%%sep 1 1 500

